material/.icons/material/page-layout-body.svg

<svg xmlns="http://www.w3.org/2000/svg" viewBox="0 0 24 24"><path d="M6 2h12a2 2 0 012 2v16a2 2 0 01-2 2H6a2 2 0 01-2-2V4a2 2 0 012-2m0 6v8h12V8H6z"/></svg>

<?xml version="1.0" encoding="UTF-8"?><!DOCTYPE svg PUBLIC "-//W3C//DTD SVG 1.1//EN" "http://www.w3.org/Graphics/SVG/1.1/DTD/svg11.dtd"><svg xmlns="http://www.w3.org/2000/svg" xmlns:xlink="http://www.w3.org/1999/xlink" version="1.1" id="mdi-page-layout-body" width="24" height="24" viewBox="0 0 24 24"><path d="M6,2H18A2,2 0 0,1 20,4V20A2,2 0 0,1 18,22H6A2,2 0 0,1 4,20V4A2,2 0 0,1 6,2M6,8V16H18V8H6Z" /></svg>
